X: 32316
T: Pigeon On The Gate, The
R: reel
M: 4/4
K: Gdorian
Bc|:dG G/G/G dcAc|d2 de dcAB|cF F/F/F cFAB|c2 cf dcAc|
dG G/G/G dcAc|d2 de dcAG|FAcf afga|fdcA GABc:|
|:dg g/g/g fagf|dgga bgag|dcde fgfd|cA f2 fgaf|
dg g/g/g fagf|dgga bgag|dcde fgfd|1 cAFA GABc:|2 cAFA G2||

